svg/emoticon_remove_outline.svg

<svg xmlns="http://www.w3.org/2000/svg" viewBox="0 0 24 24"><path d="M16.88 15.46 19 17.59l2.12-2.12 1.42 1.41L20.41 19l2.13 2.12-1.42 1.42L19 20.41l-2.12 2.13-1.42-1.42L17.59 19l-2.12-2.12zM12 17.5c-2.33 0-4.31-1.46-5.11-3.5h8.8a5.94 5.94 0 0 0-2.46 3.36c-.4.09-.81.14-1.23.14M8.5 11C7.67 11 7 10.33 7 9.5S7.67 8 8.5 8s1.5.67 1.5 1.5S9.33 11 8.5 11m7 0c-.83 0-1.5-.67-1.5-1.5S14.67 8 15.5 8s1.5.67 1.5 1.5-.67 1.5-1.5 1.5M12 20l1.07-.07c.11.68.33 1.33.65 1.92-.56.1-1.14.15-1.72.15-5.53 0-10-4.5-10-10S6.47 2 12 2c5.5 0 10 4.5 10 10 0 .59-.05 1.16-.15 1.72-.59-.32-1.23-.54-1.92-.65L20 12c0-4.42-3.58-8-8-8s-8 3.58-8 8 3.58 8 8 8"/></svg>

<svg xmlns="http://www.w3.org/2000/svg" id="mdi-emoticon-remove-outline" viewBox="0 0 24 24"><path d="M16.88 15.46L19 17.59L21.12 15.47L22.54 16.88L20.41 19L22.54 21.12L21.12 22.54L19 20.41L16.88 22.54L15.46 21.12L17.59 19L15.47 16.88L16.88 15.46M12 17.5C9.67 17.5 7.69 16.04 6.89 14H15.69C14.5 14.78 13.62 15.97 13.23 17.36C12.83 17.45 12.42 17.5 12 17.5M8.5 11C7.67 11 7 10.33 7 9.5C7 8.67 7.67 8 8.5 8C9.33 8 10 8.67 10 9.5C10 10.33 9.33 11 8.5 11M15.5 11C14.67 11 14 10.33 14 9.5C14 8.67 14.67 8 15.5 8C16.33 8 17 8.67 17 9.5C17 10.33 16.33 11 15.5 11M12 20L13.07 19.93C13.18 20.61 13.4 21.26 13.72 21.85C13.16 21.95 12.58 22 12 22C6.47 22 2 17.5 2 12C2 6.5 6.47 2 12 2C17.5 2 22 6.5 22 12C22 12.59 21.95 13.16 21.85 13.72C21.26 13.4 20.62 13.18 19.93 13.07L20 12C20 7.58 16.42 4 12 4C7.58 4 4 7.58 4 12C4 16.42 7.58 20 12 20Z" /></svg>
